app/medias/svg/pseudo_class.svg

<?xml version="1.0" encoding="UTF-8"?>
<svg xmlns="http://www.w3.org/2000/svg" xmlns:xlink="http://www.w3.org/1999/xlink" width="24" height="24" viewBox="0 0 24 24">
<path fill-rule="nonzero" fill="rgb(0%, 0%, 0%)" fill-opacity="1" stroke-width="2" stroke-linecap="round" stroke-linejoin="round" stroke="rgb(0%, 0%, 0%)" stroke-opacity="1" stroke-miterlimit="4" d="M 106.666667 0 L 21.333333 0 C 9.583333 0 0 9.583333 0 21.333333 L 0 106.666667 C 0 118.416667 9.583333 128 21.333333 128 L 106.666667 128 C 118.416667 128 128 118.416667 128 106.666667 L 128 21.333333 C 128 9.583333 118.416667 0 106.666667 0 Z M 85.333333 85.333333 L 42.666667 85.333333 L 42.666667 42.666667 L 85.333333 42.666667 Z M 85.333333 85.333333 " transform="matrix(0.046875, 0, 0, 0.046875, 0, 0)"/>
<path fill-rule="nonzero" fill="rgb(0%, 0%, 0%)" fill-opacity="1" stroke-width="2" stroke-linecap="round" stroke-linejoin="round" stroke="rgb(0%, 0%, 0%)" stroke-opacity="1" stroke-miterlimit="4" d="M 106.666667 384 L 21.333333 384 C 9.583333 384 0 393.583333 0 405.333333 L 0 490.666667 C 0 502.416667 9.583333 512 21.333333 512 L 106.666667 512 C 118.416667 512 128 502.416667 128 490.666667 L 128 405.333333 C 128 393.583333 118.416667 384 106.666667 384 Z M 85.333333 469.333333 L 42.666667 469.333333 L 42.666667 426.666667 L 85.333333 426.666667 Z M 85.333333 469.333333 " transform="matrix(0.046875, 0, 0, 0.046875, 0, 0)"/>
<path fill-rule="nonzero" fill="rgb(0%, 0%, 0%)" fill-opacity="1" stroke-width="2" stroke-linecap="round" stroke-linejoin="round" stroke="rgb(0%, 0%, 0%)" stroke-opacity="1" stroke-miterlimit="4" d="M 490.666667 384 L 405.333333 384 C 393.583333 384 384 393.583333 384 405.333333 L 384 490.666667 C 384 502.416667 393.583333 512 405.333333 512 L 490.666667 512 C 502.416667 512 512 502.416667 512 490.666667 L 512 405.333333 C 512 393.583333 502.416667 384 490.666667 384 Z M 469.333333 469.333333 L 426.666667 469.333333 L 426.666667 426.666667 L 469.333333 426.666667 Z M 469.333333 469.333333 " transform="matrix(0.046875, 0, 0, 0.046875, 0, 0)"/>
<path fill-rule="nonzero" fill="rgb(0%, 0%, 0%)" fill-opacity="1" stroke-width="2" stroke-linecap="round" stroke-linejoin="round" stroke="rgb(0%, 0%, 0%)" stroke-opacity="1" stroke-miterlimit="4" d="M 490.666667 0 L 405.333333 0 C 393.5 0 384 9.583333 384 21.333333 L 384 106.666667 C 384 118.416667 393.5 128 405.333333 128 L 490.666667 128 C 502.5 128 512 118.416667 512 106.666667 L 512 21.333333 C 512 9.583333 502.5 0 490.666667 0 Z M 490.666667 0 " transform="matrix(0.046875, 0, 0, 0.046875, 0, 0)"/>
<path fill-rule="nonzero" fill="rgb(0%, 0%, 0%)" fill-opacity="1" stroke-width="2" stroke-linecap="round" stroke-linejoin="round" stroke="rgb(0%, 0%, 0%)" stroke-opacity="1" stroke-miterlimit="4" d="M 256 42.666667 C 244.25 42.666667 234.666667 52.25 234.666667 64 C 234.666667 75.75 244.25 85.333333 256 85.333333 C 267.75 85.333333 277.333333 75.75 277.333333 64 C 277.333333 52.25 267.75 42.666667 256 42.666667 Z M 256 42.666667 " transform="matrix(0.046875, 0, 0, 0.046875, 0, 0)"/>
<path fill-rule="nonzero" fill="rgb(0%, 0%, 0%)" fill-opacity="1" stroke-width="2" stroke-linecap="round" stroke-linejoin="round" stroke="rgb(0%, 0%, 0%)" stroke-opacity="1" stroke-miterlimit="4" d="M 170.666667 42.666667 C 158.916667 42.666667 149.333333 52.25 149.333333 64 C 149.333333 75.75 158.916667 85.333333 170.666667 85.333333 C 182.416667 85.333333 192 75.75 192 64 C 192 52.25 182.416667 42.666667 170.666667 42.666667 Z M 170.666667 42.666667 " transform="matrix(0.046875, 0, 0, 0.046875, 0, 0)"/>
<path fill-rule="nonzero" fill="rgb(0%, 0%, 0%)" fill-opacity="1" stroke-width="2" stroke-linecap="round" stroke-linejoin="round" stroke="rgb(0%, 0%, 0%)" stroke-opacity="1" stroke-miterlimit="4" d="M 341.333333 42.666667 C 329.583333 42.666667 320 52.25 320 64 C 320 75.75 329.583333 85.333333 341.333333 85.333333 C 353.083333 85.333333 362.666667 75.75 362.666667 64 C 362.666667 52.25 353.083333 42.666667 341.333333 42.666667 Z M 341.333333 42.666667 " transform="matrix(0.046875, 0, 0, 0.046875, 0, 0)"/>
<path fill-rule="nonzero" fill="rgb(0%, 0%, 0%)" fill-opacity="1" stroke-width="2" stroke-linecap="round" stroke-linejoin="round" stroke="rgb(0%, 0%, 0%)" stroke-opacity="1" stroke-miterlimit="4" d="M 256 426.666667 C 244.25 426.666667 234.666667 436.25 234.666667 448 C 234.666667 459.75 244.25 469.333333 256 469.333333 C 267.75 469.333333 277.333333 459.75 277.333333 448 C 277.333333 436.25 267.75 426.666667 256 426.666667 Z M 256 426.666667 " transform="matrix(0.046875, 0, 0, 0.046875, 0, 0)"/>
<path fill-rule="nonzero" fill="rgb(0%, 0%, 0%)" fill-opacity="1" stroke-width="2" stroke-linecap="round" stroke-linejoin="round" stroke="rgb(0%, 0%, 0%)" stroke-opacity="1" stroke-miterlimit="4" d="M 64 277.333333 C 75.75 277.333333 85.333333 267.75 85.333333 256 C 85.333333 244.25 75.75 234.666667 64 234.666667 C 52.25 234.666667 42.666667 244.25 42.666667 256 C 42.666667 267.75 52.25 277.333333 64 277.333333 Z M 64 277.333333 " transform="matrix(0.046875, 0, 0, 0.046875, 0, 0)"/>
<path fill-rule="nonzero" fill="rgb(0%, 0%, 0%)" fill-opacity="1" stroke-width="2" stroke-linecap="round" stroke-linejoin="round" stroke="rgb(0%, 0%, 0%)" stroke-opacity="1" stroke-miterlimit="4" d="M 64 362.666667 C 75.75 362.666667 85.333333 353.083333 85.333333 341.333333 C 85.333333 329.583333 75.75 320 64 320 C 52.25 320 42.666667 329.583333 42.666667 341.333333 C 42.666667 353.083333 52.25 362.666667 64 362.666667 Z M 64 362.666667 " transform="matrix(0.046875, 0, 0, 0.046875, 0, 0)"/>
<path fill-rule="nonzero" fill="rgb(0%, 0%, 0%)" fill-opacity="1" stroke-width="2" stroke-linecap="round" stroke-linejoin="round" stroke="rgb(0%, 0%, 0%)" stroke-opacity="1" stroke-miterlimit="4" d="M 64 192 C 75.75 192 85.333333 182.416667 85.333333 170.666667 C 85.333333 158.916667 75.75 149.333333 64 149.333333 C 52.25 149.333333 42.666667 158.916667 42.666667 170.666667 C 42.666667 182.416667 52.25 192 64 192 Z M 64 192 " transform="matrix(0.046875, 0, 0, 0.046875, 0, 0)"/>
<path fill-rule="nonzero" fill="rgb(0%, 0%, 0%)" fill-opacity="1" stroke-width="2" stroke-linecap="round" stroke-linejoin="round" stroke="rgb(0%, 0%, 0%)" stroke-opacity="1" stroke-miterlimit="4" d="M 448 277.333333 C 459.75 277.333333 469.333333 267.75 469.333333 256 C 469.333333 244.25 459.75 234.666667 448 234.666667 C 436.25 234.666667 426.666667 244.25 426.666667 256 C 426.666667 267.75 436.25 277.333333 448 277.333333 Z M 448 277.333333 " transform="matrix(0.046875, 0, 0, 0.046875, 0, 0)"/>
<path fill-rule="nonzero" fill="rgb(0%, 0%, 0%)" fill-opacity="1" stroke-width="2" stroke-linecap="round" stroke-linejoin="round" stroke="rgb(0%, 0%, 0%)" stroke-opacity="1" stroke-miterlimit="4" d="M 448 362.666667 C 459.75 362.666667 469.333333 353.083333 469.333333 341.333333 C 469.333333 329.583333 459.75 320 448 320 C 436.25 320 426.666667 329.583333 426.666667 341.333333 C 426.666667 353.083333 436.25 362.666667 448 362.666667 Z M 448 362.666667 " transform="matrix(0.046875, 0, 0, 0.046875, 0, 0)"/>
<path fill-rule="nonzero" fill="rgb(0%, 0%, 0%)" fill-opacity="1" stroke-width="2" stroke-linecap="round" stroke-linejoin="round" stroke="rgb(0%, 0%, 0%)" stroke-opacity="1" stroke-miterlimit="4" d="M 448 192 C 459.75 192 469.333333 182.416667 469.333333 170.666667 C 469.333333 158.916667 459.75 149.333333 448 149.333333 C 436.25 149.333333 426.666667 158.916667 426.666667 170.666667 C 426.666667 182.416667 436.25 192 448 192 Z M 448 192 " transform="matrix(0.046875, 0, 0, 0.046875, 0, 0)"/>
<path fill-rule="nonzero" fill="rgb(0%, 0%, 0%)" fill-opacity="1" stroke-width="2" stroke-linecap="round" stroke-linejoin="round" stroke="rgb(0%, 0%, 0%)" stroke-opacity="1" stroke-miterlimit="4" d="M 170.666667 426.666667 C 158.916667 426.666667 149.333333 436.25 149.333333 448 C 149.333333 459.75 158.916667 469.333333 170.666667 469.333333 C 182.416667 469.333333 192 459.75 192 448 C 192 436.25 182.416667 426.666667 170.666667 426.666667 Z M 170.666667 426.666667 " transform="matrix(0.046875, 0, 0, 0.046875, 0, 0)"/>
<path fill-rule="nonzero" fill="rgb(0%, 0%, 0%)" fill-opacity="1" stroke-width="2" stroke-linecap="round" stroke-linejoin="round" stroke="rgb(0%, 0%, 0%)" stroke-opacity="1" stroke-miterlimit="4" d="M 341.333333 426.666667 C 329.583333 426.666667 320 436.25 320 448 C 320 459.75 329.583333 469.333333 341.333333 469.333333 C 353.083333 469.333333 362.666667 459.75 362.666667 448 C 362.666667 436.25 353.083333 426.666667 341.333333 426.666667 Z M 341.333333 426.666667 " transform="matrix(0.046875, 0, 0, 0.046875, 0, 0)"/>
</svg>

<?xml version="1.0" encoding="iso-8859-1"?>
<svg height="800px" width="800px" version="1.1" id="Layer_1" xmlns="http://www.w3.org/2000/svg" xmlns:xlink="http://www.w3.org/1999/xlink" viewBox="0 0 512 512" xml:space="preserve">
	<path stroke="currentColor" stroke-linecap="round" stroke-linejoin="round" stroke-width="2" d="M106.667,0H21.333C9.551,0,0,9.551,0,21.333v85.333C0,118.449,9.551,128,21.333,128h85.333
		c11.782,0,21.333-9.551,21.333-21.333V21.333C128,9.551,118.449,0,106.667,0z M85.333,85.333H42.667V42.667h42.667V85.333z"/>
	<path stroke="currentColor" stroke-linecap="round" stroke-linejoin="round" stroke-width="2" d="M106.667,384H21.333C9.551,384,0,393.551,0,405.333v85.333C0,502.449,9.551,512,21.333,512h85.333
		c11.782,0,21.333-9.551,21.333-21.333v-85.333C128,393.551,118.449,384,106.667,384z M85.333,469.333H42.667v-42.667h42.667
		V469.333z"/>
	<path stroke="currentColor" stroke-linecap="round" stroke-linejoin="round" stroke-width="2" d="M490.667,384h-85.333C393.551,384,384,393.551,384,405.333v85.333c0,11.782,9.551,21.333,21.333,21.333h85.333
		c11.782,0,21.333-9.551,21.333-21.333v-85.333C512,393.551,502.449,384,490.667,384z M469.333,469.333h-42.667v-42.667h42.667
		V469.333z"/>
	<path stroke="currentColor" stroke-linecap="round" stroke-linejoin="round" stroke-width="2" d="M490.667,0h-85.333C393.536,0,384,9.557,384,21.333v85.333c0,11.776,9.536,21.333,21.333,21.333h85.333
		c11.797,0,21.333-9.557,21.333-21.333V21.333C512,9.557,502.464,0,490.667,0z"/>
	<path stroke="currentColor" stroke-linecap="round" stroke-linejoin="round" stroke-width="2" d="M256,42.667c-11.776,0-21.333,9.557-21.333,21.333S244.224,85.333,256,85.333S277.333,75.776,277.333,64
		S267.776,42.667,256,42.667z"/>
	<path stroke="currentColor" stroke-linecap="round" stroke-linejoin="round" stroke-width="2" d="M170.667,42.667c-11.776,0-21.333,9.557-21.333,21.333s9.557,21.333,21.333,21.333S192,75.776,192,64
		S182.443,42.667,170.667,42.667z"/>
	<path stroke="currentColor" stroke-linecap="round" stroke-linejoin="round" stroke-width="2" d="M341.333,42.667C329.557,42.667,320,52.224,320,64s9.557,21.333,21.333,21.333c11.776,0,21.333-9.557,21.333-21.333
		S353.109,42.667,341.333,42.667z"/>
	<path stroke="currentColor" stroke-linecap="round" stroke-linejoin="round" stroke-width="2" d="M256,426.667c-11.776,0-21.333,9.557-21.333,21.333s9.557,21.333,21.333,21.333s21.333-9.557,21.333-21.333
		S267.776,426.667,256,426.667z"/>
	<path stroke="currentColor" stroke-linecap="round" stroke-linejoin="round" stroke-width="2" d="M64,277.333c11.776,0,21.333-9.557,21.333-21.333S75.776,234.667,64,234.667S42.667,244.224,42.667,256
		S52.224,277.333,64,277.333z"/>
	<path stroke="currentColor" stroke-linecap="round" stroke-linejoin="round" stroke-width="2" d="M64,362.667c11.776,0,21.333-9.557,21.333-21.333C85.333,329.557,75.776,320,64,320s-21.333,9.557-21.333,21.333
		C42.667,353.109,52.224,362.667,64,362.667z"/>
	<path stroke="currentColor" stroke-linecap="round" stroke-linejoin="round" stroke-width="2" d="M64,192c11.776,0,21.333-9.557,21.333-21.333S75.776,149.333,64,149.333s-21.333,9.557-21.333,21.333S52.224,192,64,192z
		"/>
	<path stroke="currentColor" stroke-linecap="round" stroke-linejoin="round" stroke-width="2" d="M448,277.333c11.776,0,21.333-9.557,21.333-21.333s-9.557-21.333-21.333-21.333s-21.333,9.557-21.333,21.333
		S436.224,277.333,448,277.333z"/>
	<path stroke="currentColor" stroke-linecap="round" stroke-linejoin="round" stroke-width="2" d="M448,362.667c11.776,0,21.333-9.557,21.333-21.333c0-11.776-9.557-21.333-21.333-21.333s-21.333,9.557-21.333,21.333
		C426.667,353.109,436.224,362.667,448,362.667z"/>
	<path stroke="currentColor" stroke-linecap="round" stroke-linejoin="round" stroke-width="2" d="M448,192c11.776,0,21.333-9.557,21.333-21.333s-9.557-21.333-21.333-21.333s-21.333,9.557-21.333,21.333
		S436.224,192,448,192z"/>
	<path stroke="currentColor" stroke-linecap="round" stroke-linejoin="round" stroke-width="2" d="M170.667,426.667c-11.776,0-21.333,9.557-21.333,21.333s9.557,21.333,21.333,21.333S192,459.776,192,448
		S182.443,426.667,170.667,426.667z"/>
	<path stroke="currentColor" stroke-linecap="round" stroke-linejoin="round" stroke-width="2" d="M341.333,426.667C329.557,426.667,320,436.224,320,448s9.557,21.333,21.333,21.333c11.776,0,21.333-9.557,21.333-21.333
		S353.109,426.667,341.333,426.667z"/>
</svg>
